!!!COM: Bach, Johann Sebastian
!!!CDT: 1685/3//-1750/7/28/
!!!OTL@@DE: Valet will ich dir geben
!!!AGN: 4-Part Chorale
!!!SCT: BH 024
!!!SCT: BWV 415
!!!YEC: Copyright 1994, David Huron
!!!YEC: Changes/Additions 2001 by Craig Stuart Sapp
!!!YEN: United States of America
!!!SMA: 371 Bach Chorales, edited by Ludwig Erk, C.F. Peters
!!!PDT: 1850, 1865
!!!ONB: Harmony and Root analysis done manually
**kern	**kern	**kern	**kern	**root	**harm
!bass	!tenor	!alto	!soprno	!	!
*Iorgan	*Iorgan	*Iorgan	*Iorgan	*Iorgan	*
*M4/4	*M4/4	*M4/4	*M4/4	*M4/4	*M4/4
*met(C)	*met(C)	*met(C)	*met(C)	*met(C)	*met(C)
*MM60	*MM60	*MM60	*MM60	*MM60	*MM60
*k[f#c#]	*k[f#c#]	*k[f#c#]	*k[f#c#]	*k[f#c#]	*k[f#c#]
*D:	*D:	*D:	*D:	*D:	*D:
*>[A,A,B]	*>[A,A,B]	*>[A,A,B]	*>[A,A,B]	*>[A,A,B]	*>[A,A,B]
*>A	*>A	*>A	*>A	*>A	*>A
8D	8F#	4A	4d	4DD	I
8C#	8E	.	.	.	.
=1	=1	=1	=1	=1	=1
8D	8F#	4d	4a	4DD	I
8E	8G	.	.	.	.
8F#	8A	4d	4a	4DD	Ib
8D	8F#	.	.	.	.
8G	4G	4d	4b	4GG	IV
8F#	.	.	.	.	.
4E	8G	[4g	4cc#	4CC#	viiob
.	8A	.	.	.	.
=2	=2	=2	=2	=2	=2
8BB	4B	4g]	2dd	4GG	IVb
8C#	.	.	.	.	.
4D	8A	8f#	.	4DD	I
.	8G	8e	.	.	.
4DD;	4A;	4f#;	4dd;	4DD;	I;
4d	4a	8a	4ff#	4DD	I
.	.	8b	.	.	.
=3	=3	=3	=3	=3	=3
4A#	4g	4cc#	4ee	4AA#	viioD7/vi
8B	4f#	4b	4dd	4BB	vi7
8An	.	.	.	.	.
4G#	4fn	4b	4dd	4GG#	viioD7/V
4A	4e	4a	4cc#	4AA	V
=4	=4	=4	=4	=4	=4
2.D;	2.f#y;	2.a;	2.dd;	2.DD;	I;
=:|!	=:|!	=:|!	=:|!	=:|!	=:|!
*>B	*>B	*>B	*>B	*>B	*>B
4D	8f#	4a	8dd	4DD	I
.	8g	.	8ee	.	.
=5	=5	=5	=5	=5	=5
8d	4a	4dd	4ff#	4DD	I
8c#	.	.	.	.	.
8B	4d	8dd	4ff#	4BB	vi
8A	.	8cc#	.	.	.
8G#	8e	8b	4.ee	8EE	Vb/V
8E	8d	8g#	.	8EE	V7/V
8F#	8c#	8a	.	8FF#	iii
8G#	8B	8b	8dd	8GG#	viio/V
!!linebreak: 2
=6	=6	=6	=6	=6	=6
8A	4A	8e	8cc#	8AA	V
8G#	.	8f#	8b	8GG#	v7/vii
8F#	4G#	4g#	4cc#	4CC#	Vb/iii
8E#	.	.	.	.	.
4F#;	4c#;	4f#;	4a;	4FF#;	iii;
4F#	8f#	[4a	4cc#	4FF#	iii7
.	8e	.	.	.	.
=7	=7	=7	=7	=7	=7
8B	4d	8a]	4dd	4GG#	vii/V
8BB	.	8g#	.	.	.
8C#	4e	[4a	4cc#	4AA	Vb
8D	.	.	.	.	.
8E	8e	4a]	4b	8EE	II
8D	8f#	.	.	8BB	vi7b
8E	8e	4g#	4b	4EE	II7
8EE	8d	.	.	.	.
=8	=8	=8	=8	=8	=8
2.AA;	2.c#;	2.e;	2.a;	2.AA;	V;
4C#	4A	4e	4a	4AA	Vb
=9	=9	=9	=9	=9	=9
8D	4A	4d	8f#	4DD	I
8E	.	.	8g	.	.
8F#	8d	4d	4a	4DD	I7
8D	8cn	.	.	.	.
4G	8B	8d	4b	8GG	IV
.	8c#	8e	.	8CC#	viio7c
8F#	8d	4f#	4a	4DD	I7b
8E	8cn	.	.	.	.
=10	=10	=10	=10	=10	=10
4D#	2B	4f#	4a	4BB	V7b/ii
4E	.	4e	8g	4EE	ii
.	.	.	8f#	.	.
4BB;	4B;	4d#;	4f#;	4BB;	VI;
4FF#	4cn	4dn	4a	4DD	V7b/IV
=11	=11	=11	=11	=11	=11
8GG	4B	4d	4g	4GG	IV
8AA	.	.	.	.	.
8BB	4B	[4d	4f#	4BB	vi7
8AA	.	.	.	.	.
8GG	4B	4d]	4e	4EE	ii7
8EE	.	.	.	.	.
4AA	8A	4c#	4e	4AA	V
.	8G	.	.	.	.
=12	=12	=12	=12	=12	=12
2.DD;	2.F#;	2.A;	2.d;	2.DD;	I;
==	==	==	==	==	==
*-	*-	*-	*-	*-	*-
!!chor2scor: -l 2 -s 0.6 -o %b.pmx
